svgs/duotone/arrows-to-line.svg

<svg xmlns="http://www.w3.org/2000/svg" viewBox="0 0 448 512"><!--! Font Awesome Pro 6.0.0-alpha3 by @fontawesome - https://fontawesome.com License - https://fontawesome.com/license (Commercial License) --><defs><style>.fa-secondary{opacity:.4}</style></defs><path class="fa-primary" d="M201.4 182.6C207.6 188.9 215.8 192 224 192s16.38-3.125 22.62-9.375l64-64C316.9 112.4 320 104.2 320 96c0-17.05-13.73-32-32-32c-8.188 0-16.38 3.125-22.62 9.375L256 82.75V32c0-17.69-14.31-32-32-32S192 14.31 192 32v50.75L182.6 73.38C176.4 67.13 168.2 64 160 64C141.7 64 128 78.95 128 96c0 8.188 3.125 16.38 9.375 22.62L201.4 182.6zM246.6 329.4C240.4 323.1 232.2 320 224 320s-16.38 3.116-22.62 9.366l-64 64C131.1 399.6 128 407.8 128 416c0 17.05 13.73 32 32 32c8.188 0 16.38-3.125 22.62-9.375L192 429.3V480c0 17.69 14.31 32 32 32s32-14.31 32-32v-50.75l9.375 9.375C271.6 444.9 279.8 448 288 448c18.28 0 32-14.95 32-32c0-8.188-3.125-16.38-9.375-22.62L246.6 329.4z"/><path class="fa-secondary" d="M32 287.1h384c17.69 0 32-14.3 32-31.99s-14.31-32.01-32-32.01H32c-17.69 0-32 14.33-32 32.01S14.31 287.1 32 287.1z"/></svg>

<svg xmlns="http://www.w3.org/2000/svg" viewBox="0 0 448 512"><!-- Font Awesome Pro 6.0.0-alpha2 by @fontawesome - https://fontawesome.com License - https://fontawesome.com/license (Commercial License) --><defs><style>.fa-secondary{opacity:.4}</style></defs><path d="M32 287.979H416C433.688 287.979 448 273.667 448 255.979S433.688 223.979 416 223.979H32C14.312 223.979 0 238.292 0 255.979S14.312 287.979 32 287.979Z" class="fa-secondary"/><path d="M201.375 182.625C207.625 188.875 215.812 192 224 192S240.375 188.875 246.625 182.625L310.625 118.625C316.875 112.375 320 104.188 320 96C320 78.947 306.269 64 288 64C279.812 64 271.625 67.125 265.375 73.375L256 82.75V32C256 14.312 241.688 0 224 0S192 14.312 192 32V82.75L182.625 73.375C176.375 67.125 168.188 64 160 64C141.721 64 128 78.947 128 96C128 104.188 131.125 112.375 137.375 118.625L201.375 182.625ZM246.625 329.375C240.375 323.125 232.188 320 224 320S207.625 323.125 201.375 329.375L137.375 393.375C131.125 399.625 128 407.812 128 416C128 433.053 141.731 448 160 448C168.188 448 176.375 444.875 182.625 438.625L192 429.25V480C192 497.688 206.312 512 224 512S256 497.688 256 480V429.25L265.375 438.625C271.625 444.875 279.812 448 288 448C306.279 448 320 433.053 320 416C320 407.812 316.875 399.625 310.625 393.375L246.625 329.375Z" class="fa-primary"/></svg>
